src/topics/icons/logmatic.svg

<svg height="64" preserveAspectRatio="xMidYMid" viewBox="0 0 512 64" width="512" xmlns="http://www.w3.org/2000/svg"><path d="m.11872464 1.56742029v46.82202901h32.77356526v-7.4258551h-24.61310149v-39.39617391zm68.76011596 47.62342031c-3.609971 0-6.9138551-.6362899-9.9005218-1.9070145-2.9885217-1.2688696-5.5485217-2.995942-7.6911304-5.1849275-2.1407536-2.1815653-3.8121739-4.7378551-5.0142609-7.6595943-1.2076521-2.9143188-1.8086956-6.0271304-1.8086956-9.3291594v-.1354203c0-3.2964637.6010435-6.4074203 1.8086956-9.3291594 1.202087-2.9217391 2.8957682-5.4835942 5.0828986-7.69113042 2.1834203-2.20568116 4.7693913-3.95686956 7.757913-5.24985507 2.9866667-1.29298551 6.2886957-1.94226087 9.8986667-1.94226087 3.6118261 0 6.912.63628986 9.9005217 1.90701449 2.9866667 1.27072464 5.5522319 2.99965218 7.6911305 5.18307247 2.1407536 2.1852754 3.8121739 4.7397101 5.017971 7.6577391 1.203942 2.9217392 1.8049855 6.0326957 1.8049855 9.3328696v.1317101c0 3.302029-.6010435 6.4129855-1.8049855 9.3328696-1.2057971 2.9217391-2.8994783 5.4854493-5.0847536 7.6948406-2.1834203 2.2056811-4.7731015 3.9550145-7.7597682 5.2517101-2.9885217 1.2892754-6.2849855 1.9366957-9.8986666 1.9366957zm.1335652-7.5575652c2.3077101 0 4.429913-.4322319 6.3610435-1.3059711 1.9329855-.8663188 3.585855-2.049855 4.9623188-3.5450434 1.3746087-1.4914783 2.4505507-3.2445218 3.2296812-5.2517102.7772753-2.0053333 1.1668406-4.147942 1.1668406-6.4204058v-.1354203c0-2.2706087-.3895653-4.4224927-1.1668406-6.451942-.7791305-2.0294493-1.8643479-3.789913-3.2649276-5.2851014-1.3987246-1.4933334-3.073855-2.686145-5.0291014-3.57843482-1.9515362-.89228986-4.0830145-1.33750725-6.3925797-1.33750725s-4.428058.43594203-6.3610435 1.30226087c-1.9292754.8718841-3.5858551 2.0554203-4.9604638 3.5468986-1.3783188 1.4951884-2.4542608 3.2445217-3.2333913 5.249855-.7754203 2.0090435-1.1631304 4.1479421-1.1631304 6.4222609v.1317101c0 2.278029.3877101 4.4299131 1.1631304 6.4556522.7791305 2.0313044 1.868058 3.7917681 3.2649276 5.2851015 1.4005797 1.4970434 3.0757101 2.6842898 5.0291014 3.5784347 1.9571015.8922899 4.0848696 1.3393624 6.3944348 1.3393624zm61.6051012 7.5575652c-3.658203 0-6.980637-.614029-9.965449-1.8402319-2.986667-1.2262029-5.541101-2.9198841-7.657739-5.0810435-2.118493-2.1630145-3.760232-4.7063188-4.917797-7.628058-1.159421-2.9180289-1.738203-6.0976231-1.738203-9.5313623v-.1354203c0-3.2500869.593623-6.3536232 1.786435-9.2976232 1.189101-2.9421449 2.860521-5.5151304 5.016116-7.72266662 2.151884-2.20568116 4.711884-3.95686956 7.68-5.24985507 2.960695-1.29298551 6.208927-1.94226087 9.729855-1.94226087 2.05171 0 3.914203.14655073 5.585623.43594203 1.673275.28753623 3.222261.70121739 4.648811 1.23733333 1.428406.53426087 2.775189 1.19466667 4.045913 1.9737971 1.270725.77913044 2.509914 1.68255073 3.713856 2.7084058l-5.218319 6.220058c-.89229-.7587247-1.806841-1.4469565-2.741797-2.072116-.938667-.6233043-1.918145-1.1482898-2.942145-1.57124635-1.02771-.42481159-2.153739-.75872463-3.379942-1.00730434-1.226203-.24115942-2.572986-.36544928-4.045913-.36544928-2.137044 0-4.136812.44707246-5.988174 1.34121739-1.849508.89228988-3.45229 2.08881158-4.815768 3.58585508-1.357913 1.4970435-2.430145 3.250087-3.211131 5.2609855-.777275 2.0108986-1.168696 4.1331015-1.168696 6.3666087v.1317101c0 2.4171595.37658 4.6525218 1.135305 6.706087.755014 2.0572754 1.834666 3.8195942 3.235246 5.2943768 1.402435 1.4747826 3.070145 2.636058 5.004986 3.4838261 1.93484.8533333 4.10342 1.2762899 6.505739 1.2762899 2.224232 0 4.303768-.3264928 6.238609-.9776232 1.93484-.6492754 3.613681-1.510029 5.034666-2.5896812v-8.8115942h-11.970782v-7.1550145h19.930898v19.6619131c-1.157565.9831884-2.43942 1.9237101-3.84371 2.8122898-1.402435.8941449-2.921739 1.6714203-4.548638 2.3429565-1.628753.664116-3.376232 1.1946667-5.249855 1.5693913-1.873623.3802899-3.83629.5695073-5.888.5695073zm213.283247 10.6722319c0 2.3002898-1.862493 4.1627826-4.157218 4.1627826-2.304 0-4.168348-1.8624928-4.168348-4.1627826 0-2.3002899 1.864348-4.1627826 4.168348-4.1627826 2.294725 0 4.157218 1.8624927 4.157218 4.1627826zm70.390724-20.6395363h8.896928v9.1659131h-8.896928zm24.94887-37.65797098h8.158609v46.82388408h-8.158609zm48.092753 47.62527538c-3.609971 0-6.913855-.6362899-9.900521-1.9070145-2.990377-1.2688696-5.552232-2.995942-7.691131-5.1849275-2.140753-2.1815653-3.812174-4.7378551-5.017971-7.6595943-1.203942-2.9143188-1.80684-6.0271304-1.80684-9.3291594v-.1354203c0-3.2964637.602898-6.4074203 1.80684-9.3291594 1.205797-2.9217391 2.897623-5.4835942 5.086609-7.69113042 2.185275-2.20568116 4.765681-3.95686956 7.756058-5.24985507 2.984812-1.29298551 6.290551-1.94226087 9.904232-1.94226087 3.609971 0 6.910145.63628986 9.893101 1.90701449 2.986667 1.27072464 5.557797 2.99965218 7.696696 5.18307247 2.138898 2.1852754 3.808464 4.7397101 5.014261 7.6577391 1.207652 2.9217392 1.80684 6.0326957 1.80684 9.3328696v.1317101c0 3.302029-.599188 6.4129855-1.80684 9.3328696-1.205797 2.9217391-2.897623 5.4854493-5.081044 7.6948406-2.188985 2.2056811-4.776811 3.9550145-7.763478 5.2517101-2.986667 1.2892754-6.28313 1.9366957-9.896812 1.9366957zm.137276-7.5575652c2.302145 0 4.426203-.4322319 6.357333-1.3059711 1.931131-.8663188 3.585855-2.049855 4.958609-3.5450434 1.380174-1.4914783 2.454261-3.2445218 3.233391-5.2517102.77542-2.0053333 1.163131-4.147942 1.163131-6.4204058v-.1354203c0-2.2706087-.387711-4.4224927-1.163131-6.451942-.77913-2.0294493-1.866203-3.789913-3.264927-5.2851014-1.398725-1.4933334-3.079421-2.686145-5.029102-3.57843482-1.951536-.89228986-4.084869-1.33750725-6.39258-1.33750725-2.309565 0-4.428058.43594203-6.361043 1.30226087-1.932986.8718841-3.58771 2.0554203-4.964174 3.5468986-1.372754 1.4951884-2.450551 3.2445217-3.231536 5.249855-.773565 2.0090435-1.161276 4.1479421-1.161276 6.4222609v.1317101c0 2.278029.387711 4.4299131 1.161276 6.4556522.780985 2.0313044 1.866203 3.7917681 3.268638 5.2851015 1.395014 1.4970434 3.070144 2.6842898 5.027246 3.5784347 1.957101.8922899 4.083014 1.3393624 6.398145 1.3393624z" fill="#355e72"/><path d="m76.7128116 20.1867826c0 2.2984348-1.8662029 4.1664928-4.1590725 4.1664928-2.3002898 0-4.1664927-1.868058-4.1664927-4.1664928 0-2.2965797 1.8662029-4.1627826 4.1664927-4.1627826 2.2928696 0 4.1590725 1.8662029 4.1590725 4.1627826zm89.1547824-18.62121738h8.763363l14.246956 22.14028988 14.246957-22.14028988h8.761507v46.82573908h-8.158609v-33.5805217l-14.783072 22.0735073h-.268986l-14.647652-21.9417971v33.4488115h-8.160464zm79.662377-.33391305h7.628058l20.60429 47.15779713h-8.69658l-4.748985-11.3085218h-22.142145l-4.815768 11.3085218h-8.427595zm11.77229 28.56069563-8.091826-18.7269565-8.025044 18.7269565zm41.004522-20.60057968h-14.848v-7.62434783h37.991884v7.62434783h-14.849855v39.19768118h-8.294029zm37.324058-7.6262029h8.156753v46.82388408h-8.156753zm47.558492 47.62527538c-3.433739 0-6.598492-.6233044-9.497971-1.8717681-2.899478-1.2484638-5.416811-2.9532754-7.544579-5.118145-2.133334-2.1630145-3.802899-4.7155942-5.016116-7.6595942-1.213218-2.9421449-1.823537-6.0846376-1.823537-9.4311884v-.1354203c0-3.3409855.597334-6.4742029 1.786435-9.395942 1.192812-2.918029 2.867942-5.4835942 5.019826-7.6929855 2.151884-2.20753623 4.700754-3.94573913 7.644754-5.21646377 2.942145-1.27072463 6.197797-1.90701449 9.765101-1.90701449 2.140754 0 4.08858.17994203 5.850899.53797102 1.764174.35431884 3.381797.85704347 4.849159 1.50075362 1.472928.64742029 2.832696 1.42098551 4.083015 2.31142029 1.248464.89228985 2.42829 1.86991304 3.545043 2.94028985l-5.286956 6.09020288c-1.869913-1.7400579-3.856696-3.1462029-5.951073-4.21657969-2.096232-1.07037681-4.481855-1.60463768-7.156869-1.60463768-2.229797 0-4.292638.43594203-6.190377 1.30226087-1.899594.8718841-3.532058 2.0554203-4.912232 3.5468986-1.383884 1.4951884-2.454261 3.2445217-3.209275 5.249855-.762435 2.0090435-1.139015 4.1479421-1.139015 6.4222609v.1317101c0 2.278029.37658 4.4299131 1.139015 6.4556522.755014 2.0313044 1.825391 3.8047536 3.209275 5.3203478 1.380174 1.5118841 3.012638 2.7102609 4.912232 3.5765797 1.897739.8737392 3.96058 1.3059711 6.190377 1.3059711 2.854956 0 5.307362-.5491015 7.355362-1.6398841 2.05171-1.0944927 4.083015-2.5748406 6.090203-4.4466087l5.283246 5.3481739c-1.202087 1.2966957-2.465391 2.4412754-3.780637 3.4467247-1.313392 1.0054492-2.728812 1.8717681-4.248116 2.611942-1.511884.7327536-3.175884 1.2929855-4.982725 1.6677101-1.80313.3802899-3.801043.5695073-5.984464.5695073z" fill="#319cd5"/></svg>

<?xml version="1.0" encoding="UTF-8"?>
<svg width="512px" height="64px" viewBox="0 0 512 64" version="1.1" xmlns="http://www.w3.org/2000/svg" xmlns:xlink="http://www.w3.org/1999/xlink" preserveAspectRatio="xMidYMid">
	<g>
		<path d="M0.118724638,1.56742029 L0.118724638,48.3894493 L32.8922899,48.3894493 L32.8922899,40.9635942 L8.27918841,40.9635942 L8.27918841,1.56742029 L0.118724638,1.56742029 L0.118724638,1.56742029 Z M68.8788406,49.1908406 C65.2688696,49.1908406 61.9649855,48.5545507 58.9783188,47.2838261 C55.9897971,46.0149565 53.4297971,44.2878841 51.2871884,42.0988986 C49.1464348,39.9173333 47.4750145,37.3610435 46.2729275,34.4393043 C45.0652754,31.5249855 44.4642319,28.4121739 44.4642319,25.1101449 L44.4642319,24.9747246 C44.4642319,21.6782609 45.0652754,18.5673043 46.2729275,15.6455652 C47.4750145,12.7238261 49.1686957,10.161971 51.3558261,7.95443478 C53.5392464,5.74875362 56.1252174,3.99756522 59.1137391,2.70457971 C62.1004058,1.4115942 65.4024348,0.762318841 69.0124058,0.762318841 C72.6242319,0.762318841 75.9244058,1.3986087 78.9129275,2.66933333 C81.8995942,3.94005797 84.4651594,5.66898551 86.604058,7.8524058 C88.7448116,10.0376812 90.4162319,12.5921159 91.622029,15.5101449 C92.825971,18.4318841 93.4270145,21.5428406 93.4270145,24.8430145 L93.4270145,24.9747246 C93.4270145,28.2767536 92.825971,31.3877101 91.622029,34.3075942 C90.4162319,37.2293333 88.7225507,39.7930435 86.5372754,42.0024348 C84.3538551,44.2081159 81.7641739,45.9574493 78.7775072,47.2541449 C75.7889855,48.5434203 72.4925217,49.1908406 68.8788406,49.1908406 Z M69.0124058,41.6332754 C71.3201159,41.6332754 73.4423188,41.2010435 75.3734493,40.3273043 C77.3064348,39.4609855 78.9593043,38.2774493 80.3357681,36.7822609 C81.7103768,35.2907826 82.7863188,33.5377391 83.5654493,31.5305507 C84.3427246,29.5252174 84.7322899,27.3826087 84.7322899,25.1101449 L84.7322899,24.9747246 C84.7322899,22.7041159 84.3427246,20.5522319 83.5654493,18.5227826 C82.7863188,16.4933333 81.7011014,14.7328696 80.3005217,13.2376812 C78.9017971,11.7443478 77.2266667,10.5515362 75.2714203,9.65924638 C73.3198841,8.76695652 71.1884058,8.32173913 68.8788406,8.32173913 C66.5692754,8.32173913 64.4507826,8.75768116 62.5177971,9.624 C60.5885217,10.4958841 58.931942,11.6794203 57.5573333,13.1708986 C56.1790145,14.666087 55.1030725,16.4154203 54.323942,18.4207536 C53.5485217,20.4297971 53.1608116,22.5686957 53.1608116,24.8430145 L53.1608116,24.9747246 C53.1608116,27.2527536 53.5485217,29.4046377 54.323942,31.4303768 C55.1030725,33.4616812 56.192,35.2221449 57.5888696,36.7154783 C58.9894493,38.2125217 60.6645797,39.3997681 62.617971,40.293913 C64.5750725,41.1862029 66.7028406,41.6332754 69.0124058,41.6332754 Z M130.617507,49.1908406 C126.959304,49.1908406 123.63687,48.5768116 120.652058,47.3506087 C117.665391,46.1244058 115.110957,44.4307246 112.994319,42.2695652 C110.875826,40.1065507 109.234087,37.5632464 108.076522,34.6415072 C106.917101,31.7234783 106.338319,28.5438841 106.338319,25.1101449 L106.338319,24.9747246 C106.338319,21.7246377 106.931942,18.6211014 108.124754,15.6771014 C109.313855,12.7349565 110.985275,10.161971 113.14087,7.95443478 C115.292754,5.74875362 117.852754,3.99756522 120.82087,2.70457971 C123.781565,1.4115942 127.029797,0.762318841 130.550725,0.762318841 C132.602435,0.762318841 134.464928,0.908869565 136.136348,1.19826087 C137.809623,1.4857971 139.358609,1.89947826 140.785159,2.4355942 C142.213565,2.96985507 143.560348,3.63026087 144.831072,4.4093913 C146.101797,5.18852174 147.340986,6.09194203 148.544928,7.1177971 L143.326609,13.3378551 C142.434319,12.5791304 141.519768,11.8908986 140.584812,11.2657391 C139.646145,10.6424348 138.666667,10.1174493 137.642667,9.69449275 C136.614957,9.26968116 135.488928,8.93576812 134.262725,8.68718841 C133.036522,8.44602899 131.689739,8.32173913 130.216812,8.32173913 C128.079768,8.32173913 126.08,8.76881159 124.228638,9.66295652 C122.37913,10.5552464 120.776348,11.7517681 119.41287,13.2488116 C118.054957,14.7458551 116.982725,16.4988986 116.201739,18.5097971 C115.424464,20.5206957 115.033043,22.6428986 115.033043,24.8764058 L115.033043,25.0081159 C115.033043,27.4252754 115.409623,29.6606377 116.168348,31.7142029 C116.923362,33.7714783 118.003014,35.5337971 119.403594,37.0085797 C120.806029,38.4833623 122.473739,39.6446377 124.40858,40.4924058 C126.34342,41.3457391 128.512,41.7686957 130.914319,41.7686957 C133.138551,41.7686957 135.218087,41.4422029 137.152928,40.7910725 C139.087768,40.1417971 140.766609,39.2810435 142.187594,38.2013913 L142.187594,29.3897971 L130.216812,29.3897971 L130.216812,22.2347826 L150.14771,22.2347826 L150.14771,41.8966957 C148.990145,42.8798841 147.70829,43.8204058 146.304,44.7089855 C144.901565,45.6031304 143.382261,46.3804058 141.755362,47.051942 C140.126609,47.716058 138.37913,48.2466087 136.505507,48.6213333 C134.631884,49.0016232 132.669217,49.1908406 130.617507,49.1908406 Z M343.900754,59.8630725 C343.900754,62.1633623 342.038261,64.0258551 339.743536,64.0258551 C337.439536,64.0258551 335.575188,62.1633623 335.575188,59.8630725 C335.575188,57.5627826 337.439536,55.7002899 339.743536,55.7002899 C342.038261,55.7002899 343.900754,57.5627826 343.900754,59.8630725 Z M414.291478,39.2235362 L423.188406,39.2235362 L423.188406,48.3894493 L414.291478,48.3894493 L414.291478,39.2235362 Z M439.240348,1.56556522 L447.398957,1.56556522 L447.398957,48.3894493 L439.240348,48.3894493 L439.240348,1.56556522 Z M487.333101,49.1908406 C483.72313,49.1908406 480.419246,48.5545507 477.43258,47.2838261 C474.442203,46.0149565 471.880348,44.2878841 469.741449,42.0988986 C467.600696,39.9173333 465.929275,37.3610435 464.723478,34.4393043 C463.519536,31.5249855 462.916638,28.4121739 462.916638,25.1101449 L462.916638,24.9747246 C462.916638,21.6782609 463.519536,18.5673043 464.723478,15.6455652 C465.929275,12.7238261 467.621101,10.161971 469.810087,7.95443478 C471.995362,5.74875362 474.575768,3.99756522 477.566145,2.70457971 C480.550957,1.4115942 483.856696,0.762318841 487.470377,0.762318841 C491.080348,0.762318841 494.380522,1.3986087 497.363478,2.66933333 C500.350145,3.94005797 502.921275,5.66898551 505.060174,7.8524058 C507.199072,10.0376812 508.868638,12.5921159 510.074435,15.5101449 C511.282087,18.4318841 511.881275,21.5428406 511.881275,24.8430145 L511.881275,24.9747246 C511.881275,28.2767536 511.282087,31.3877101 510.074435,34.3075942 C508.868638,37.2293333 507.176812,39.7930435 504.993391,42.0024348 C502.804406,44.2081159 500.21658,45.9574493 497.229913,47.2541449 C494.243246,48.5434203 490.946783,49.1908406 487.333101,49.1908406 Z M487.470377,41.6332754 C489.772522,41.6332754 491.89658,41.2010435 493.82771,40.3273043 C495.758841,39.4609855 497.413565,38.2774493 498.786319,36.7822609 C500.166493,35.2907826 501.24058,33.5377391 502.01971,31.5305507 C502.79513,29.5252174 503.182841,27.3826087 503.182841,25.1101449 L503.182841,24.9747246 C503.182841,22.7041159 502.79513,20.5522319 502.01971,18.5227826 C501.24058,16.4933333 500.153507,14.7328696 498.754783,13.2376812 C497.356058,11.7443478 495.675362,10.5515362 493.725681,9.65924638 C491.774145,8.76695652 489.640812,8.32173913 487.333101,8.32173913 C485.023536,8.32173913 482.905043,8.75768116 480.972058,9.624 C479.039072,10.4958841 477.384348,11.6794203 476.007884,13.1708986 C474.63513,14.666087 473.557333,16.4154203 472.776348,18.4207536 C472.002783,20.4297971 471.615072,22.5686957 471.615072,24.8430145 L471.615072,24.9747246 C471.615072,27.2527536 472.002783,29.4046377 472.776348,31.4303768 C473.557333,33.4616812 474.642551,35.2221449 476.044986,36.7154783 C477.44,38.2125217 479.11513,39.3997681 481.072232,40.293913 C483.029333,41.1862029 485.155246,41.6332754 487.470377,41.6332754 Z" fill="#355E72"></path>
		<path d="M76.7128116,20.1867826 C76.7128116,22.4852174 74.8466087,24.3532754 72.5537391,24.3532754 C70.2534493,24.3532754 68.3872464,22.4852174 68.3872464,20.1867826 C68.3872464,17.8902029 70.2534493,16.024 72.5537391,16.024 C74.8466087,16.024 76.7128116,17.8902029 76.7128116,20.1867826 Z M165.867594,1.56556522 L174.630957,1.56556522 L188.877913,23.7058551 L203.12487,1.56556522 L211.886377,1.56556522 L211.886377,48.3913043 L203.727768,48.3913043 L203.727768,14.8107826 L188.944696,36.8842899 L188.67571,36.8842899 L174.028058,14.9424928 L174.028058,48.3913043 L165.867594,48.3913043 L165.867594,1.56556522 L165.867594,1.56556522 Z M245.529971,1.23165217 L253.158029,1.23165217 L273.762319,48.3894493 L265.065739,48.3894493 L260.316754,37.0809275 L238.174609,37.0809275 L233.358841,48.3894493 L224.931246,48.3894493 L245.529971,1.23165217 L245.529971,1.23165217 Z M257.302261,29.7923478 L249.210435,11.0653913 L241.185391,29.7923478 L257.302261,29.7923478 L257.302261,29.7923478 Z M298.306783,9.19176812 L283.458783,9.19176812 L283.458783,1.56742029 L321.450667,1.56742029 L321.450667,9.19176812 L306.600812,9.19176812 L306.600812,48.3894493 L298.306783,48.3894493 L298.306783,9.19176812 L298.306783,9.19176812 Z M335.630841,1.56556522 L343.787594,1.56556522 L343.787594,48.3894493 L335.630841,48.3894493 L335.630841,1.56556522 Z M383.189333,49.1908406 C379.755594,49.1908406 376.590841,48.5675362 373.691362,47.3190725 C370.791884,46.0706087 368.274551,44.3657971 366.146783,42.2009275 C364.013449,40.037913 362.343884,37.4853333 361.130667,34.5413333 C359.917449,31.5991884 359.30713,28.4566957 359.30713,25.1101449 L359.30713,24.9747246 C359.30713,21.6337391 359.904464,18.5005217 361.093565,15.5787826 C362.286377,12.6607536 363.961507,10.0951884 366.113391,7.8857971 C368.265275,5.67826087 370.814145,3.94005797 373.758145,2.66933333 C376.70029,1.3986087 379.955942,0.762318841 383.523246,0.762318841 C385.664,0.762318841 387.611826,0.94226087 389.374145,1.30028986 C391.138319,1.6546087 392.755942,2.15733333 394.223304,2.80104348 C395.696232,3.44846377 397.056,4.22202899 398.306319,5.11246377 C399.554783,6.00475362 400.734609,6.98237681 401.851362,8.05275362 L396.564406,14.1429565 C394.694493,12.4028986 392.70771,10.9967536 390.613333,9.92637681 C388.517101,8.856 386.131478,8.32173913 383.456464,8.32173913 C381.226667,8.32173913 379.163826,8.75768116 377.266087,9.624 C375.366493,10.4958841 373.734029,11.6794203 372.353855,13.1708986 C370.969971,14.666087 369.899594,16.4154203 369.14458,18.4207536 C368.382145,20.4297971 368.005565,22.5686957 368.005565,24.8430145 L368.005565,24.9747246 C368.005565,27.2527536 368.382145,29.4046377 369.14458,31.4303768 C369.899594,33.4616812 370.969971,35.2351304 372.353855,36.7507246 C373.734029,38.2626087 375.366493,39.4609855 377.266087,40.3273043 C379.163826,41.2010435 381.226667,41.6332754 383.456464,41.6332754 C386.31142,41.6332754 388.763826,41.0841739 390.811826,39.9933913 C392.863536,38.8988986 394.894841,37.4185507 396.902029,35.5467826 L402.185275,40.8949565 C400.983188,42.1916522 399.719884,43.3362319 398.404638,44.3416812 C397.091246,45.3471304 395.675826,46.2134493 394.156522,46.9536232 C392.644638,47.6863768 390.980638,48.2466087 389.173797,48.6213333 C387.370667,49.0016232 385.372754,49.1908406 383.189333,49.1908406 Z" fill="#319CD5"></path>
	</g>
</svg>
